X:1
T:Title
%%score 1 2 3 4
L:1/8
M:4/2
K:F
V:1 treble nm="Part_1"
V:2 treble-8 nm="Part_2"
V:3 bass nm="Part_3"
V:4 bass nm="Part_4"
V:1
 z16 | z16 | z8 z2 c2 AGAB | c2 cc AGAB c2 A2 G4- | G2 F2 E4 D8 |[M:6/2] z24 |[M:4/2] z16 | %7
 d4 c4 B2 A2 G4 |[M:6/2] G12 A4 F8 | B8 A4 A4 G8 |[M:4/2] A8 z8 | z16 | z16 |[M:6/2] z8 z8 d8 | %14
 d8 d4 d4 c4 B4 | A16 A8 | d16 B8 | c16 A8 | B8 B4 d4 ^c8 |[M:4/2] d8 z8 | z8 z8 | z8 z4 A4 | %22
 B8 A4 c4- | c2 G2 B4 A8 | d2 c2 B2 A2 G2 F2 E4 | D8 z8 | z4 z2 GA B4 d4 | z8 A4 c4 | B12 A4 | %29
 G8 F2 AA A2 GA | B2 B2 z2 dd d2 cB A2 A2 | z16 | z16 | z8 F6 GA | B8 G6 A2 | =B2 c4 B2 c8 | %36
 z8 z4 z ABc | d2 cB c3 c d8 |[M:6/2] z24 | z24 | z24 | z24 | z24 | c8 c8 d8 | B8 B4 B8 c4 | %45
 A12 d4 c8 |[M:4/2] d8 d2 d2 z ddA | =B2 B2 c2 c2 z ccG A2 A2 | z16 | z8 z2 d2 A2 B2 | %50
 ^F2 G2 A2 B2 A2 G4 F2 | G8 z8 | z8 z4 =B4 | =B2 B2 B4 z2 ^c2 d3 A | =B2 B2 c6 A2 G4 | A8 z8 | %56
 z4 cBcG A2 GF G2 G2 | F4 E4 A6 B2 |[M:4/4] c2 BA G4 |[M:4/2] A16 |] %60
V:2
 F4 c3 c c2 F2 c3 c | c4 G4 z2 B2 FGAB | c4 c4 z8 | z16 | z16 |[M:6/2] z24 |[M:4/2] z16 | %7
 F4 F4 F2 F2 E4 |[M:6/2] E12 E4 D8 | D8 F4 F4 E8 |[M:4/2] F4 F4 c4 A4 | B2 d2 B3 B B4 F4 | %12
 G4 A4 B2 d2 c3 c |[M:6/2] F16 F8 | F8 F4 F4 A4 G4 | ^F16 F8 | G16 G8 | F16 F8 | D8 D4 D4 E8 | %19
[M:4/2] D4 d2 dc B2 A2 G2 F2 | c4 F2 B4 B2 B4 | B4 d2 A2 c4 c4 | z16 | z16 | z16 | z16 | %26
 z8 z4 z2 GA | B4 d4 c2 B2 A2 G2 | F4 F4 E2 C2 F4- | F4 E4 F2 cc c2 cA | F2 F2 z2 FF F2 AG ^F2 F2 | %31
 z16 | z16 | z8 z4 F4- | F2 GA B4 B4 e4 | d6 d2 cGAB c4 | AABc d4 A4 A4 | B6 A2 B8 | %38
[M:6/2] B8 B8 G8 | F16 F8 | c12 A4 B4 G4 | F4 G4 A4 B4 c8 | F24 | A8 A8 A8 | G8 G4 G8 G4 | %45
 F12 B4 A8 |[M:4/2] B8 A2 A2 z AAd | d2 d2 G2 G2 z GGc c2 c2 | z2 B4 ^F2 G4 G4 | z8 z4 z2 d2 | %50
 A2 B2 ^F2 G2 A2 B2 A4 | G8 z8 | z8 z4 d4 | d2 =B2 ^G4 z2 A2 A3 ^F | G2 G2 G6 F4 E2 | F8 z4 cBcG | %56
 A2 GF G2 G2 F6 E2 | F2 F2 G2 G2 F4 F4 |[M:4/4] E2 F4 E2 |[M:4/2] F16 |] %60
V:3
 z16 | z16 | z16 | z16 | z16 |[M:6/2] F,8 F,8 C,8 |[M:4/2] F,4 B,2 A,2 G,3 G, F,4 | %7
 B,,4 A,,4 B,,2 F,,2 C,4 |[M:6/2] C,12 A,,4 B,,8 | G,,8 F,,4 F,,4 C,8 |[M:4/2] F,,8 z8 | z16 | %12
 z16 |[M:6/2] z8 z8 B,,8 | B,,8 B,,4 B,,4 F,,4 G,,4 | D,16 D,8 | B,,16 G,,8 | A,,16 F,,8 | %18
 G,,8 G,,4 B,,4 A,,8 |[M:4/2] D,4 z4 z8 | z8 z8 | z8 z4 F,4 | B,,8 F,4 F,4- | F,2 E,2 G,4 D,8 | %24
 z16 | z4 D,2 D,2 G,2 E,2 F,2 A,2 | G,4 C,4 z2 G,,A,, B,,4- | B,,4 G,,4 A,,8 | B,,8 C,8- | %29
 C,8 F,,2 F,F, F,2 E,F, | B,,2 B,,2 z2 B,,B,, B,,2 F,G, D,2 D,2 | G,4 F,4 _E,2 G,2 F,4 | %32
 B,2 A,2 G,3 G, F,F,F,E, D,4 | C,2 B,,2 F,3 F, B,,8 | B,,6 C,D, _E,4 C,2 C,2 | %35
 G,6 G,2 C,2 C,4 D,E, | F,4 D,2 G,2 F,3 E, D,3 C, | B,,2 A,,G,, F,,3 F,, B,,8 |[M:6/2] z24 | z24 | %40
 z24 | z24 | z24 | F,8 F,8 D,8 | _E,8 E,4 E,8 C,4 | D,12 B,,4 F,8 |[M:4/2] B,,8 D,2 D,2 z ^F,F,F, | %47
 G,2 G,2 E,2 E,2 z E,E,E, F,2 F,2 | z8 z4 z2 G,2- | G,2 C,2 _E,4 D,8- | D,8 z8 | %51
 z4 z2 G,2 D,2 _E,2 =B,,2 C,2 | D,2 _E,2 D,4 G,,4 G,4 | G,2 G,2 E,4 z2 A,,2 D,3 D, | %54
 G,,2 G,,2 C,6 F,2 C,4 | F,,4 F,E,F,D, _E,2 B,,2 C,4 | F,,4 C,2 C,2 F,3 F, C,2 C,2 | %57
 F,,4 C,4 F,6 D,2 |[M:4/4] C,8 |[M:4/2] F,,16 |] %60
V:4
 F,4 C3 C C2 F,2 C3 C | C4 G,4 z2 B,2 F,G,A,B, | C4 C4 F,8 | F,8 F,2 F,2 C,4- | C,2 D,2 A,,4 D,8 | %5
[M:6/2] F,8 F,8 C,8 |[M:4/2] F,4 B,2 A,2 G,3 G, F,4 | B,,4 A,,4 B,,2 F,,2 C,4 | %8
[M:6/2] C,12 A,,4 B,,8 | G,,8 F,,4 F,,4 C,8 |[M:4/2] F,,4 F,,4 C4 A,4 | B,2 D2 B,3 B, B,4 F,4 | %12
 G,4 A,4 B,2 D2 C3 C |[M:6/2] F,16 B,,8 | B,,8 B,,4 B,,4 F,,4 G,,4 | D,16 D,8 | B,,16 G,,8 | %17
 A,,16 F,,8 | G,,8 G,,4 B,,4 A,,8 |[M:4/2] D,4 D2 DC (B,2 A,2 G,2 F,2 | C4) F,2 B,4 B,2 B,4 | %21
 B,4 D2 A,2 C4 F,4 | B,,8 F,4 F,4- | F,2 E,2 G,4 D,8 | B,,2 A,,2 B,,2 F,,2 C,2 D,2 A,,4 | %25
 D,4 D,2 D,2 G,2 E,2 F,2 A,2 | G,4 C,4 G,,2 G,,A,, B,,4- | B,,4 G,,4 A,,8 | B,,8 C,8- | %29
 C,8 F,,2 F,F, F,2 E,F, | B,,2 B,,2 z2 B,,B,, B,,2 F,G, D,2 D,2 | G,4 F,4 _E,2 G,2 F,4 | %32
 B,2 A,2 G,3 G,F,F,F,E, D,4 | C,2 B,,2 F,3 F, B,,8 | B,,6 C,D, _E,4 C,2 C,2 | %35
 G,6 G,2 C,2 C,4 D,E, | F,4 D,2 G,2 F,3 E, D,3 C, | B,,2 A,,G,, F,,4 B,,8 |[M:6/2] B,8 B,8 G,8 | %39
 G,16 F,8 | C12 A,4 B,4 G,4 | F,4 G,4 A,4 B,4 C8 | F,24 | F,8 F,8 D,8 | _E,8 E,4 E,8 C,4 | %45
 D,12 B,,4 F,8 |[M:4/2] B,,8 D,2 D,2 z ^F,F,F, | G,2 G,2 E,2 E,2 z E,E,E, F,2 F,2 | %48
 z2 B,4 ^F,2 G,4 G,2 G,2- | G,2 C,2 _E,4 D,8- | D,8 D,8 | G,6 G,2 D,2 _E,2 =B,,2 C,2 | %52
 D,2 _E,2 D,4 G,,4 G,4 | G,2 G,2 E,4 z2 A,,2 D,3 D, | G,,2 G,,2 C,6 F,,2 C,4 | %55
 F,,4 F,E,F,D, _E,2 B,,2 C,4 | F,,4 C,2 C,2 F,3 F, C,2 C,2 | F,,4 C,4 F,6 D,2 |[M:4/4] C,8 | %59
[M:4/2] F,,16 |] %60

